X:459
T:TurnYourRadioOn-D-Baldry.tef
C:
N:Transcribed by Kim Davis
R:bluegrass
L:1/8
Q:1/4=213
M:4/4
K:D
z4 A,A, B,2 | D2 DD {=F}^F2 A2 | [B2F2] A2 [AF][AF] [AF][AF] | D2 (3E=FE D2 B,2 | 
A,2 [AD][AD] D2 E2 | (3[AF][AF][AF] (3[AF][AF][AF] (3[AF][AF][AF] (3[AF][AF][AF] | 
[A2F2] DE FD E2 | D2 DE FA BA | (3[fd][fd][fd] (3[fd][fd][fd] (3[fd][fd][fd] (3[fd][fd][fd] | 
[f8d8] | z8 | z8 | z8 | z8 | z8 | z8 | z8 | z8 | z8 | z8 | z8 | z8 | z8 | z8 | 


